X: 2110
T: Atholl Highlanders, The
R: jig
M: 6/8
K: Gmajor
|:d2d dBG|dBG ABc|d2 d dBG|ABc BAG|
d2d dBG|dBG ABc|dcd edc|B2A G3:|
|:GBd GBd|Gce Gce|GBd GBd|ABc B2 A|
GBd GBd|Gce Gce|dcd edc|BcA G3:|
|:gdd dBd|gdd dBd|g2d dcB|ABc BAG|
gdd dBd|gdd dBd|gdd edc|BcA G3:|
|:BGB BGB|cAA cAA|BGB BGB|A=FA A=FA|
BGB BGB|c3 ABc|dcd edc|BcA G3:|

